assets/img/bg_trigoverde.svg

<?xml version="1.0" encoding="UTF-8" standalone="no"?>
<svg width="337px" height="333px" viewBox="0 0 337 333" version="1.1" xmlns="http://www.w3.org/2000/svg" xmlns:xlink="http://www.w3.org/1999/xlink" xmlns:sketch="http://www.bohemiancoding.com/sketch/ns">
    <!-- Generator: Sketch 3.2.2 (9983) - http://www.bohemiancoding.com/sketch -->
    <title>Stroke 181</title>
    <desc>Created with Sketch.</desc>
    <defs>
        <rect id="path-1" x="0" y="0" width="554" height="345"></rect>
    </defs>
    <g id="Blank-Project" stroke="none" stroke-width="1" fill="none" fill-rule="evenodd" sketch:type="MSPage">
        <g id="Pagina-Producto-20" sketch:type="MSArtboardGroup" transform="translate(-436.000000, -213.000000)">
            <g id="Stroke-181" sketch:type="MSLayerGroup" transform="translate(304.000000, 201.000000)">
                <mask id="mask-2" sketch:name="Mask" fill="white">
                    <use xlink:href="#path-1"></use>
                </mask>
                <use id="Mask" sketch:type="MSShapeGroup" xlink:href="#path-1"></use>
                <g id="trigoverde" mask="url(#mask-2)" stroke-linecap="round" stroke="#4A792E" stroke-width="11.6479998" sketch:type="MSShapeGroup" stroke-linejoin="round">
                    <g transform="translate(245.500000, 18.000000)">
                        <path d="M86.288108,343.853897 C86.288108,343.853897 101.550622,311.337817 99.062221,299.783247 C96.57382,288.231072 84.1318146,288.231072 78.3247433,294.831973 C72.5176719,301.435268 65.0524687,340.221846 65.0524687,340.221846 C65.0524687,340.221846 51.7801941,324.542013 41.8241833,322.066376 C31.870579,319.590738 32.3687405,319.590738 32.3687405,319.590738 C32.3687405,319.590738 21.9169747,279.97815 26.8937769,268.423581 C31.870579,256.869012 46.803392,267.597571 50.9499249,278.32613 C55.0988644,289.054688 60.0756666,308.86218 60.0756666,308.86218 C60.0756666,308.86218 81.9755212,300.609258 88.2783475,267.597571 C94.5835804,234.588278 89.1086168,237.063915 89.1086168,237.063915 C89.1086168,237.063915 63.3919303,239.539552 61.7337984,253.569758 C60.0756666,267.597571 55.9267271,278.32613 55.9267271,278.32613 C55.9267271,278.32613 38.5079196,267.597571 33.5311174,249.4421 C28.5519087,231.28663 16.9401726,214.780787 30.2124471,212.30515 C43.4847217,209.829513 55.4285655,224.683335 58.4151281,232.936257 C61.4016907,241.189179 58.4151281,223.033709 62.5640676,212.30515 C66.7106005,201.576591 73.3479411,192.497659 80.8131443,194.149679 C88.2783475,195.799306 84.1318146,212.30515 82.4712762,220.558071 C80.8131443,228.810993 77.9926356,231.28663 77.9926356,231.28663" id="Stroke-363"></path>
                        <path d="M42.2432553,205.116491 C42.2432553,205.116491 38.924585,203.466864 35.6059147,182.833363 C32.289651,162.202255 32.7854059,156.259768 41.0808784,161.706649 C49.3763508,167.153529 57.6718232,184.485383 57.6718232,184.485383 C57.6718232,184.485383 53.0271288,188.280243 55.5155298,197.689579 C58.0039309,207.096522 73.7646065,202.640854 80.4019471,182.833363 C87.0368811,163.028266 90.8537129,143.220775 82.5582405,143.220775 C74.2627681,143.220775 65.8012418,146.522422 63.8110022,154.775344 C61.8207627,163.028266 60.492332,167.97954 60.492332,167.97954 C60.492332,167.97954 51.3689969,168.803156 55.5155298,143.220775 C59.6644693,117.638393 58.8342001,110.209087 67.9575352,110.209087 C77.0832768,110.209087 78.7414087,114.336745 78.7414087,122.589667 C78.7414087,130.842589 78.4117076,135.793863 78.4117076,135.793863 C87.8671503,92.8796277 74.5948757,35.9351858 74.5948757,35.9351858" id="Stroke-365"></path>
                        <path d="M37.7079597,151.578179 C37.7079597,151.578179 25.5956554,133.422709 29.7445949,123.517766 C33.8911278,113.615218 39.864253,114.441228 41.8544926,117.742876 C41.8544926,117.742876 45.5052705,130.121062 52.1426111,134.246325 C52.1426111,134.246325 29.7445949,96.2857583 42.1866003,90.5084736 C54.6310122,84.731189 61.2659462,93.479717 62.9264846,98.7613954 L64.5846165,104.043074" id="Stroke-367"></path>
                        <path d="M105.889407,298.11569 C105.889407,298.11569 121.650083,263.949983 125.799022,222.685374" id="Stroke-369"></path>
                        <path d="M89.0433651,269.636286 C89.0433651,269.636286 113.099513,232.994942 117.248453,201.137275" id="Stroke-371"></path>
                        <path d="M84.2302103,224.466683 C84.2302103,224.466683 96.8382695,210.766881 102.147179,173.62993 L107.456089,136.492979" id="Stroke-373"></path>
                        <path d="M79.4170554,185.658558 C79.4170554,185.658558 92.8553838,151.49285 94.8456233,117.655153 L96.8382695,83.8198494" id="Stroke-375"></path>
                        <path d="M51.016717,0.0216881029 C51.016717,0.0216881029 38.5747117,56.96613 51.8469862,85.0241487" id="Stroke-377"></path>
                        <path d="M16.8460421,67.0602171 C16.8460421,67.0602171 19.6665508,138.034865 29.6201551,150.413051 C39.5761659,162.791237 44.5529681,161.96762 44.5529681,161.96762" id="Stroke-379"></path>
                        <path d="M7.21973231,129.31028 C7.21973231,129.31028 22.4822464,200.119726 43.2221308,210.517881 C63.9596085,220.916035 56.9925668,220.090025 56.9925668,220.090025" id="Stroke-381"></path>
                        <path d="M0,189.166109 C0,189.166109 18.5811844,252.21824 36.50056,260.468768 C54.417529,268.721689 55.5774993,274.99458 55.5774993,274.99458" id="Stroke-383"></path>
                    </g>
                </g>
                <g id="trigoverde-2" mask="url(#mask-2)" stroke-linecap="round" stroke="#4A792E" stroke-width="7.64799976" sketch:type="MSShapeGroup" stroke-linejoin="round">
                    <g transform="translate(178.534393, 263.482710) scale(-1, 1) rotate(21.000000) translate(-178.534393, -263.482710) translate(136.034393, 148.482710)">
                        <path d="M57.7453772,229.215161 C57.7453772,229.215161 67.9592949,207.539738 66.2940173,199.83739 C64.6287396,192.136638 56.3023513,192.136638 52.4161666,196.53684 C48.5299819,200.938638 43.5341489,226.794013 43.5341489,226.794013 C43.5341489,226.794013 34.6521312,216.341738 27.9894101,214.691463 C21.3282995,213.041188 21.6616771,213.041188 21.6616771,213.041188 C21.6616771,213.041188 14.6671888,186.635188 17.9977441,178.93284 C21.3282995,171.230492 31.3215759,178.382216 34.0965018,185.533941 C36.8730383,192.685666 40.2035936,205.889463 40.2035936,205.889463 C40.2035936,205.889463 54.8593254,200.388014 59.0772772,178.382216 C63.2968396,156.378015 59.6329066,158.02829 59.6329066,158.02829 C59.6329066,158.02829 42.4228901,159.678566 41.3132419,169.031189 C40.2035936,178.382216 37.4270572,185.533941 37.4270572,185.533941 C37.4270572,185.533941 25.7701136,178.382216 22.4395582,166.279666 C19.1073924,154.177116 11.3366335,143.174218 20.2186512,141.523942 C29.1006689,139.873667 37.0936795,149.775318 39.0923348,155.276768 C41.0909901,160.778217 39.0923348,148.675667 41.8688713,141.523942 C44.6437972,134.372218 49.0856113,128.320145 54.0814443,129.421392 C59.0772772,130.521044 56.3023513,141.523942 55.1910925,147.025392 C54.0814443,152.526841 52.1939148,154.177116 52.1939148,154.177116" id="Stroke-363"></path>
                        <path d="M28.2698597,136.731937 C28.2698597,136.731937 26.0489527,135.632286 23.8280456,121.877864 C21.6087491,108.125039 21.9405162,104.16374 27.4919786,107.794665 C33.043441,111.42559 38.5949033,122.979112 38.5949033,122.979112 C38.5949033,122.979112 35.4865998,125.508789 37.1518774,131.781112 C38.8171551,138.051838 49.3644504,135.081662 53.8062645,121.877864 C58.2464681,108.675663 60.8007528,95.4718652 55.2492904,95.4718652 C49.6978281,95.4718652 44.0352398,97.6727642 42.7033398,103.174214 C41.3714398,108.675663 40.4824327,111.976213 40.4824327,111.976213 C40.4824327,111.976213 34.3769515,112.525241 37.1518774,95.4718652 C39.9284139,78.4184895 39.3727845,73.4660679 45.4782657,73.4660679 C51.5853575,73.4660679 52.6950057,76.2175906 52.6950057,81.7190399 C52.6950057,87.2204892 52.4743645,90.5210396 52.4743645,90.5210396 C58.8020975,61.9141415 49.9200798,23.9546199 49.9200798,23.9546199" id="Stroke-365"></path>
                        <path d="M25.2347676,101.042964 C25.2347676,101.042964 17.1290206,88.9404135 19.905557,82.3377167 C22.6804829,75.7366159 26.6777935,76.2872396 28.0096935,78.4881385 C28.0096935,78.4881385 30.4528524,86.7395145 34.8946665,89.4894412 C34.8946665,89.4894412 19.905557,64.1846895 28.2319453,60.3335153 C36.5599441,56.4823412 41.0001477,62.3141648 42.1114065,65.8349647 L43.2210547,69.3557646" id="Stroke-367"></path>
                        <path d="M70.8628791,198.725786 C70.8628791,198.725786 81.4101744,175.950711 84.1867109,148.443465" id="Stroke-369"></path>
                        <path d="M59.5892392,179.741237 C59.5892392,179.741237 75.6879969,155.315887 78.4645334,134.079367" id="Stroke-371"></path>
                        <path d="M56.3681993,149.630897 C56.3681993,149.630897 64.8057134,140.498523 68.3585205,115.742799 L71.9113276,90.9870748" id="Stroke-373"></path>
                        <path d="M53.1471593,123.761157 C53.1471593,123.761157 62.1403029,100.986083 63.4722029,78.4296616 L64.8057134,55.8748365" id="Stroke-375"></path>
                        <path d="M34.1412002,0.0144574252 C34.1412002,0.0144574252 25.8148119,37.973979 34.6968296,56.67763" id="Stroke-377"></path>
                        <path d="M11.2736399,44.7027607 C11.2736399,44.7027607 13.1611693,92.0149058 19.8222799,100.266282 C26.4850011,108.517658 29.8155564,107.96863 29.8155564,107.96863" id="Stroke-379"></path>
                        <path d="M4.83155994,86.1990423 C4.83155994,86.1990423 15.0454776,133.401063 28.9249388,140.332538 C42.8027895,147.264013 38.1403341,146.713389 38.1403341,146.713389" id="Stroke-381"></path>
                        <path d="M-3.69482223e-13,126.099313 C-3.69482223e-13,126.099313 12.4348248,168.130258 24.4267565,173.630112 C36.4170778,179.131561 37.1933484,183.313109 37.1933484,183.313109" id="Stroke-383"></path>
                    </g>
                </g>
                <g id="trigoverde-3" mask="url(#mask-2)" stroke-linecap="round" stroke="#4A792E" stroke-width="5.64799976" sketch:type="MSShapeGroup" stroke-linejoin="round">
                    <g transform="translate(439.109849, 275.727304) rotate(10.000000) translate(-439.109849, -275.727304) translate(407.609849, 190.227304)">
                        <path d="M42.861715,170.135782 C42.861715,170.135782 50.4430324,154.047121 49.206974,148.330025 C47.9709157,142.614114 41.7906238,142.614114 38.9060892,145.88018 C36.0215545,149.14743 32.3133794,168.338676 32.3133794,168.338676 C32.3133794,168.338676 25.7206697,160.580437 20.7752408,159.355515 C15.8310074,158.130592 16.0784581,158.130592 16.0784581,158.130592 C16.0784581,158.130592 10.8867739,138.530643 13.3588907,132.813548 C15.8310074,127.096452 23.248553,132.404845 25.3082518,137.713239 C27.369146,143.021632 29.8412627,152.822198 29.8412627,152.822198 C29.8412627,152.822198 40.7195326,148.738728 43.8503226,132.404845 C46.9823081,116.072147 44.2627406,117.29707 44.2627406,117.29707 C44.2627406,117.29707 31.4885436,118.521993 30.6649032,125.464011 C29.8412627,132.404845 27.7803685,137.713239 27.7803685,137.713239 C27.7803685,137.713239 19.12796,132.404845 16.6558432,123.421684 C14.1825311,114.438522 8.41465721,106.271581 15.007367,105.046658 C21.6000767,103.821735 27.5329178,111.171272 29.0164269,115.254742 C30.499936,119.338213 29.0164269,110.355051 31.0773211,105.046658 C33.1370199,99.7382645 36.4339725,95.2460914 40.1421476,96.0634963 C43.8503226,96.8797166 41.7906238,105.046658 40.965788,109.130129 C40.1421476,113.213599 38.741122,114.438522 38.741122,114.438522" id="Stroke-363"></path>
                        <path d="M20.9834056,101.489775 C20.9834056,101.489775 19.3349293,100.673555 17.686453,90.4642856 C16.0391722,80.2562012 16.2854275,77.3159128 20.4060205,80.0109798 C24.5266135,82.7060467 28.6472065,91.2816905 28.6472065,91.2816905 C28.6472065,91.2816905 26.340057,93.1593525 27.5761153,97.8150066 C28.8121737,102.469476 36.6409418,100.264852 39.9378944,90.4642856 C43.2336516,80.6649037 45.1295786,70.8643372 41.0089856,70.8643372 C36.8883926,70.8643372 32.685316,72.4979624 31.6967084,76.581433 C30.7081008,80.6649037 30.0482321,83.1147492 30.0482321,83.1147492 C30.0482321,83.1147492 25.5164165,83.522267 27.5761153,70.8643372 C29.6370096,58.2064074 29.2245916,54.5304545 33.7564072,54.5304545 C38.2894181,54.5304545 39.1130585,56.5727822 39.1130585,60.6562529 C39.1130585,64.7397235 38.9492868,67.189569 38.9492868,67.189569 C43.6460695,45.9559954 37.0533597,17.7804032 37.0533597,17.7804032" id="Stroke-365"></path>
                        <path d="M18.7305975,74.9995051 C18.7305975,74.9995051 12.7140775,66.0163435 14.7749717,61.1154679 C16.8346705,56.215777 19.8016887,56.6244794 20.7902963,58.2581046 C20.7902963,58.2581046 22.6037398,64.3827183 25.9006924,66.4238613 C25.9006924,66.4238613 14.7749717,47.6413178 20.9552635,44.7827699 C27.1367507,41.924222 30.4325079,46.2529141 31.2573437,48.8662406 L32.0809842,51.479567" id="Stroke-367"></path>
                        <path d="M52.5982282,147.504933 C52.5982282,147.504933 60.4269963,130.600052 62.4878905,110.182698" id="Stroke-369"></path>
                        <path d="M44.2303283,133.413583 C44.2303283,133.413583 56.1796894,115.283779 58.2405836,99.5208951" id="Stroke-371"></path>
                        <path d="M41.8394997,111.064074 C41.8394997,111.064074 48.1022751,104.285537 50.739359,85.9105109 L53.3764429,67.5354853" id="Stroke-373"></path>
                        <path d="M39.4486712,91.8621664 C39.4486712,91.8621664 46.1238645,74.957285 47.1124721,58.2146999 L48.1022751,41.4732994" id="Stroke-375"></path>
                        <path d="M25.3414293,0.0107310761 C25.3414293,0.0107310761 19.1611375,28.1863232 25.7538472,42.0691758" id="Stroke-377"></path>
                        <path d="M8.36789994,33.1807858 C8.36789994,33.1807858 9.76892548,68.2983965 14.7131589,74.4230102 C19.6585878,80.5476239 22.1307045,80.1401061 22.1307045,80.1401061" id="Stroke-379"></path>
                        <path d="M3.58624283,63.9815508 C3.58624283,63.9815508 11.1675602,99.0174211 21.4696404,104.162334 C31.7705253,109.307246 28.3098009,108.898543 28.3098009,108.898543" id="Stroke-381"></path>
                        <path d="M-7.95807864e-13,93.5976711 C-7.95807864e-13,93.5976711 9.22979364,124.795292 18.1308483,128.877578 C27.0307076,132.961049 27.6068973,136.064818 27.6068973,136.064818" id="Stroke-383"></path>
                    </g>
                </g>
            </g>
        </g>
    </g>
</svg>

<?xml version="1.0" encoding="UTF-8" standalone="no"?>
<svg xmlns:sketch="http://www.bohemiancoding.com/sketch/ns" xmlns="http://www.w3.org/2000/svg" height="333px" width="337px" version="1.1" xmlns:xlink="http://www.w3.org/1999/xlink" viewBox="0 0 337 333"><!-- Generator: Sketch 3.2.2 (9983) - http://www.bohemiancoding.com/sketch -->
 <title>Stroke 181</title>
 <desc>Created with Sketch.</desc>
 <defs>
  <rect id="path-1" y="0" x="0" height="345" width="554"/>
 </defs>
 <g id="Blank-Project" fill-rule="evenodd" sketch:type="MSPage" fill="none">
  <g id="Pagina-Producto-20" transform="translate(-436 -213)" sketch:type="MSArtboardGroup">
   <g id="Stroke-181" transform="translate(304 201)" sketch:type="MSLayerGroup">
    <mask id="mask-2" sketch:name="Mask" fill="white">
     <use xlink:href="#path-1"/>
    </mask>
    <use id="Mask" xlink:href="#path-1" sketch:type="MSShapeGroup"/>
    <g id="trigoverde" stroke-linejoin="round" mask="url(#mask-2)" sketch:type="MSShapeGroup" stroke="#4A792E" stroke-linecap="round" stroke-width="11.648">
     <g transform="translate(245.5 18)">
      <path id="Stroke-363" d="m86.288 343.85s15.262-32.51 12.774-44.07c-2.488-11.55-14.93-11.55-20.737-4.95-5.807 6.61-13.273 45.39-13.273 45.39s-13.272-15.68-23.228-18.15c-9.953-2.48-9.455-2.48-9.455-2.48s-10.452-39.61-5.475-51.17c4.977-11.55 19.909-0.82 24.056 9.91 4.149 10.72 9.126 30.53 9.126 30.53s21.9-8.25 28.202-41.26c6.306-33.01 0.831-30.54 0.831-30.54s-25.717 2.48-27.375 16.51-5.807 24.76-5.807 24.76-17.419-10.73-22.396-28.89c-4.979-18.15-16.591-34.66-3.319-37.13 13.273-2.48 25.217 12.37 28.203 20.63 2.987 8.25 0-9.91 4.149-20.63 4.147-10.73 10.784-19.81 18.249-18.16s3.319 18.16 1.658 26.41c-1.658 8.25-4.478 10.73-4.478 10.73"/>
      <path id="Stroke-365" d="m42.243 205.12s-3.318-1.65-6.637-22.29c-3.316-20.63-2.821-26.57 5.475-21.12 8.295 5.44 16.591 22.78 16.591 22.78s-4.645 3.79-2.156 13.2c2.488 9.41 18.249 4.95 24.886-14.86 6.635-19.8 10.452-39.61 2.156-39.61-8.295 0-16.757 3.3-18.747 11.56-1.99 8.25-3.319 13.2-3.319 13.2s-9.123 0.82-4.976-24.76c4.148-25.58 3.318-33.01 12.442-33.01 9.125 0 10.783 4.13 10.783 12.38s-0.329 13.2-0.329 13.2c9.455-42.91-3.817-99.855-3.817-99.855"/>
      <path id="Stroke-367" d="m37.708 151.58s-12.112-18.16-7.963-28.06c4.146-9.9 10.119-9.08 12.109-5.78 0 0 3.651 12.38 10.289 16.51 0 0-22.398-37.964-9.956-43.742 12.444-5.777 19.079 2.972 20.739 8.253l1.659 5.279"/>
      <path id="Stroke-369" d="m105.89 298.12s15.76-34.17 19.91-75.43"/>
      <path id="Stroke-371" d="m89.043 269.64s24.057-36.65 28.207-68.5"/>
      <path id="Stroke-373" d="m84.23 224.47s12.608-13.7 17.92-50.84l5.31-37.14"/>
      <path id="Stroke-375" d="m79.417 185.66s13.438-34.17 15.429-68l1.992-33.84"/>
      <path id="Stroke-377" d="m51.017 0.021688s-12.442 56.944 0.83 85.002"/>
      <path id="Stroke-379" d="m16.846 67.06s2.821 70.97 12.774 83.35c9.956 12.38 14.933 11.56 14.933 11.56"/>
      <path id="Stroke-381" d="m7.2197 129.31s15.262 70.81 36.002 81.21c20.738 10.4 13.771 9.57 13.771 9.57"/>
      <path id="Stroke-383" d="m0 189.17s18.581 63.05 36.501 71.3c17.917 8.25 19.076 14.52 19.076 14.52"/>
     </g>
    </g>
    <g id="trigoverde-2" stroke-linejoin="round" mask="url(#mask-2)" sketch:type="MSShapeGroup" stroke="#4A792E" stroke-linecap="round" stroke-width="7.648">
     <g transform="translate(178.53 263.48) scale(-1 1) rotate(21) translate(-42.5 -115)">
      <path id="Stroke-363" d="m57.745 229.22s10.214-21.68 8.549-29.38-9.992-7.7-13.878-3.3-8.882 30.25-8.882 30.25-8.882-10.45-15.545-12.1c-6.661-1.65-6.327-1.65-6.327-1.65s-6.995-26.4-3.664-34.11c3.33-7.7 13.324-0.55 16.099 6.6 2.776 7.16 6.107 20.36 6.107 20.36s14.655-5.5 18.873-27.51c4.22-22 0.556-20.35 0.556-20.35s-17.21 1.65-18.32 11c-1.109 9.35-3.886 16.5-3.886 16.5s-11.657-7.15-14.987-19.25c-3.333-12.1-11.103-23.11-2.221-24.76s16.875 8.26 18.873 13.76c1.999 5.5 0-6.6 2.777-13.76 2.775-7.15 7.217-13.2 12.212-12.1 4.996 1.1 2.221 12.1 1.11 17.61-1.11 5.5-2.997 7.15-2.997 7.15"/>
      <path id="Stroke-365" d="m28.27 136.73s-2.221-1.1-4.442-14.85c-2.219-13.75-1.887-17.72 3.664-14.09 5.551 3.64 11.103 15.19 11.103 15.19s-3.108 2.53-1.443 8.8 12.212 3.3 16.654-9.9c4.44-13.2 6.995-26.408 1.443-26.408-5.551 0-11.214 2.201-12.546 7.698-1.332 5.51-2.221 8.81-2.221 8.81s-6.105 0.55-3.33-16.508c2.776-17.054 2.221-22.006 8.326-22.006 6.107 0 7.217 2.752 7.217 8.253s-0.221 8.802-0.221 8.802c6.328-28.607-2.554-66.566-2.554-66.566"/>
      <path id="Stroke-367" d="m25.235 101.04s-8.106-12.1-5.329-18.702c2.774-6.601 6.772-6.051 8.104-3.85 0 0 2.443 8.252 6.885 11.001 0 0-14.989-25.304-6.663-29.155 8.328-3.852 12.768 1.98 13.879 5.501l1.11 3.521"/>
      <path id="Stroke-369" d="m70.863 198.73s10.547-22.78 13.324-50.29"/>
      <path id="Stroke-371" d="m59.589 179.74s16.099-24.42 18.876-45.66"/>
      <path id="Stroke-373" d="m56.368 149.63s8.438-9.13 11.991-33.89l3.552-24.753"/>
      <path id="Stroke-375" d="m53.147 123.76s8.993-22.77 10.325-45.33l1.334-22.555"/>
      <path id="Stroke-377" d="m34.141 0.014457s-8.326 37.96 0.556 56.664"/>
      <path id="Stroke-379" d="m11.274 44.703s1.887 47.312 8.548 55.567c6.663 8.25 9.994 7.7 9.994 7.7"/>
      <path id="Stroke-381" d="m4.8316 86.199s10.213 47.201 24.093 54.131c13.878 6.93 9.215 6.38 9.215 6.38"/>
      <path id="Stroke-383" d="m-3.6948e-13 126.1s12.435 42.03 24.427 47.53c11.99 5.5 12.766 9.68 12.766 9.68"/>
     </g>
    </g>
    <g id="trigoverde-3" stroke-linejoin="round" mask="url(#mask-2)" sketch:type="MSShapeGroup" stroke="#4A792E" stroke-linecap="round" stroke-width="5.648">
     <g transform="translate(439.11 275.73) rotate(10) translate(-31.5 -85.5)">
      <path id="Stroke-363" d="m42.862 170.14s7.581-16.09 6.345-21.81-7.416-5.72-10.301-2.45c-2.884 3.27-6.593 22.46-6.593 22.46s-6.592-7.76-11.538-8.98c-4.944-1.23-4.697-1.23-4.697-1.23s-5.191-19.6-2.719-25.32c2.472-5.71 9.89-0.41 11.949 4.9 2.061 5.31 4.533 15.11 4.533 15.11s10.879-4.08 14.009-20.42c3.132-16.33 0.413-15.1 0.413-15.1s-12.774 1.22-13.598 8.16-2.885 12.25-2.885 12.25-8.652-5.31-11.124-14.29c-2.473-8.98-8.2413-17.15-1.649-18.37 6.593-1.23 12.526 6.12 14.009 10.2 1.484 4.09 0-4.89 2.061-10.2 2.06-5.312 5.357-9.804 9.065-8.987s1.649 8.987 0.824 13.067c-0.824 4.08-2.225 5.31-2.225 5.31"/>
      <path id="Stroke-365" d="m20.983 101.49s-1.648-0.82-3.297-11.026c-1.647-10.208-1.401-13.148 2.72-10.453s8.241 11.271 8.241 11.271-2.307 1.877-1.071 6.533c1.236 4.655 9.065 2.445 12.362-7.351 3.296-9.799 5.192-19.6 1.071-19.6s-8.324 1.634-9.312 5.717c-0.989 4.084-1.649 6.534-1.649 6.534s-4.532 0.407-2.472-12.251c2.061-12.658 1.649-16.334 6.18-16.334 4.533 0 5.357 2.043 5.357 6.126 0 4.084-0.164 6.534-0.164 6.534 4.697-21.234-1.896-49.41-1.896-49.41"/>
      <path id="Stroke-367" d="m18.731 75s-6.017-8.984-3.956-13.885c2.06-4.899 5.027-4.491 6.015-2.857 0 0 1.814 6.125 5.111 8.166 0 0-11.126-18.783-4.946-21.641 6.182-2.859 9.478 1.47 10.302 4.083l0.824 2.614"/>
      <path id="Stroke-369" d="m52.598 147.5s7.829-16.9 9.89-37.32"/>
      <path id="Stroke-371" d="m44.23 133.41s11.95-18.13 14.011-33.889"/>
      <path id="Stroke-373" d="m41.839 111.06s6.263-6.77 8.9-25.149l2.637-18.376"/>
      <path id="Stroke-375" d="m39.449 91.862s6.675-16.905 7.663-33.647l0.99-16.742"/>
      <path id="Stroke-377" d="m25.341 0.010731s-6.18 28.175 0.413 42.058"/>
      <path id="Stroke-379" d="m8.3679 33.181s1.401 35.117 6.3451 41.242c4.946 6.125 7.418 5.717 7.418 5.717"/>
      <path id="Stroke-381" d="m3.5862 63.982s7.5818 35.035 17.884 40.178c10.301 5.15 6.84 4.74 6.84 4.74"/>
      <path id="Stroke-383" d="m-7.9581e-13 93.598s9.2298 31.202 18.131 35.282c8.9 4.08 9.476 7.18 9.476 7.18"/>
     </g>
    </g>
   </g>
  </g>
 </g>
</svg>
